X: 1
T: Pappani pellon per\"all\"a
M: 2/4
L: 1/16
K: Am
[| "Am"A2AA E2ED | "Am"CC2B, C2A,2 | "E7"B,B,B,C D2D2 | "Am"CB,CD E2E2 \
|| "Am"A2AA E2E2 | "Am"cc2B A2A2 | "E7"B2B2 "(#)"G2E2 | "Am"A4 A4 |]
